**harm	**harte	**timestamp	**phrase	**leadinstrument	**kern
*M4/4	*M4/4	*	*	*	*
*A:	*A:	*	*	*	*A:
1r;	N	0	.	r	1r;
=1	=1	=1	=1	=1	=1
*>A_intro	*>A_intro	*>A_intro	*>A_intro	*>A_intro	*>A_intro
1I	A:maj	0.279	newline	guitar	1A 1cc# 1ee
=2	=2	=2	=2	=2	=2
1I	A:maj	1.689	.	guitar	1A 1cc# 1ee
=3	=3	=3	=3	=3	=3
1I	A:maj	3.099	.	guitar	1A 1cc# 1ee
=4	=4	=4	=4	=4	=4
1I	A:maj	4.509	.	guitar	1A 1cc# 1ee
=5	=5	=5	=5	=5	=5
1I	A:maj	5.919	newline	guitar	1A 1cc# 1ee
=6	=6	=6	=6	=6	=6
1I	A:maj	7.283	.	guitar	1A 1cc# 1ee
=7	=7	=7	=7	=7	=7
1I	A:maj	8.647	.	guitar	1A 1cc# 1ee
=8	=8	=8	=8	=8	=8
1I	A:maj	10.011	.	guitar	1A 1cc# 1ee
=9	=9	=9	=9	=9	=9
1I	A:maj	11.374	newline	guitar	1A 1cc# 1ee
=10	=10	=10	=10	=10	=10
1I	A:maj	12.748	.	guitar	1A 1cc# 1ee
=11	=11	=11	=11	=11	=11
1I	A:maj	14.121	.	guitar	1A 1cc# 1ee
=12	=12	=12	=12	=12	=12
1I	A:maj	15.494	.	guitar	1A 1cc# 1ee
=13	=13	=13	=13	=13	=13
*>B_trans	*>B_trans	*>B_trans	*>B_trans	*>B_trans	*>B_trans
1I	A:maj	16.867	newline	guitar	1A 1cc# 1ee
=14	=14	=14	=14	=14	=14
2-VII	G:maj	18.293	.	guitar	2G 2b 2dd
2IV	D:maj	19.006	.	guitar	2D 2f# 2a
=15	=15	=15	=15	=15	=15
1I	A:maj	19.719	.	guitar	1A 1cc# 1ee
=16	=16	=16	=16	=16	=16
2-VII	G:maj	21.145	.	guitar	2G 2b 2dd
2IV	D:maj	21.858	.	guitar	2D 2f# 2a
=17	=17	=17	=17	=17	=17
*>C_verse	*>C_verse	*>C_verse	*>C_verse	*>C_verse	*>C_verse
1I	A:maj	22.571	newline	voice	1A 1cc# 1ee
=18	=18	=18	=18	=18	=18
2-VII	G:maj	23.938	.	voice	2G 2b 2dd
2IV	D:maj	24.621	.	voice	2D 2f# 2a
=19	=19	=19	=19	=19	=19
1I	A:maj	25.305	.	voice	1A 1cc# 1ee
=20	=20	=20	=20	=20	=20
2-VII	G:maj	26.672	.	voice	2G 2b 2dd
2IV	D:maj	27.355	.	voice	2D 2f# 2a
=21	=21	=21	=21	=21	=21
1I	A:maj	28.039	newline	voice	1A 1cc# 1ee
=22	=22	=22	=22	=22	=22
2-VII	G:maj	29.421	.	voice	2G 2b 2dd
2IV	D:maj	30.112	.	voice	2D 2f# 2a
=23	=23	=23	=23	=23	=23
1I	A:maj	30.803	.	voice	1A 1cc# 1ee
=24	=24	=24	=24	=24	=24
1I	A:maj	32.185	.	voice	1A 1cc# 1ee
=25	=25	=25	=25	=25	=25
1IV	D:maj	33.567	newline	voice	1D 1f# 1a
=26	=26	=26	=26	=26	=26
1IV	D:maj	34.935	.	voice	1D 1f# 1a
=27	=27	=27	=27	=27	=27
1-III	C:maj	36.303	.	voice	1C 1e 1g
=28	=28	=28	=28	=28	=28
1-III	C:maj	37.671	.	voice	1C 1e 1g
=29	=29	=29	=29	=29	=29
1IV	D:maj	39.039	newline	voice	1D 1f# 1a
=30	=30	=30	=30	=30	=30
1IV	D:maj	40.413	.	voice	1D 1f# 1a
=31	=31	=31	=31	=31	=31
1-III	C:maj	41.787	.	voice	1C 1e 1g
=32	=32	=32	=32	=32	=32
1-III	C:maj	43.161	.	voice	1C 1e 1g
=33	=33	=33	=33	=33	=33
1V	E:maj	44.535	newline	voice	1E 1g# 1b
=34	=34	=34	=34	=34	=34
1V	E:maj	45.87	.	voice	1E 1g# 1b
=35	=35	=35	=35	=35	=35
1V	E:maj	47.205	.	voice	1E 1g# 1b
=36	=36	=36	=36	=36	=36
1V	E:maj	48.539	.	voice	1E 1g# 1b
=37	=37	=37	=37	=37	=37
*>D_chorus	*>D_chorus	*>D_chorus	*>D_chorus	*>D_chorus	*>D_chorus
1I	A:maj	49.874	newline	voice	1A 1cc# 1ee
=38	=38	=38	=38	=38	=38
1I	A:maj	51.231	.	voice	1A 1cc# 1ee
=39	=39	=39	=39	=39	=39
1-VII	G:maj	52.589	.	voice	1G 1b 1dd
=40	=40	=40	=40	=40	=40
1IV	D:maj	53.946	.	voice	1D 1f# 1a
=41	=41	=41	=41	=41	=41
1I	A:maj	55.304	newline	voice	1A 1cc# 1ee
=42	=42	=42	=42	=42	=42
1I	A:maj	56.658	.	voice	1A 1cc# 1ee
=43	=43	=43	=43	=43	=43
1-VII	G:maj	58.013	.	voice	1G 1b 1dd
=44	=44	=44	=44	=44	=44
1IV	D:maj	59.368	.	voice	1D 1f# 1a
=45	=45	=45	=45	=45	=45
1ii	B:min	60.723	newline	voice	1B 1dd 1ff#
=46	=46	=46	=46	=46	=46
1ii7	B:min7	62.072	.	voice	1B 1dd 1ff# 1aa
=47	=47	=47	=47	=47	=47
1V	E:maj	63.421	.	voice	1E 1g# 1b
=48	=48	=48	=48	=48	=48
1V	E:maj	64.769	.	voice	1E 1g# 1b
=49	=49	=49	=49	=49	=49
*>B_trans	*>B_trans	*>B_trans	*>B_trans	*>B_trans	*>B_trans
1I	A:maj	66.118	newline	guitar	1A 1cc# 1ee
=50	=50	=50	=50	=50	=50
2-VII	G:maj	67.521	.	guitar	2G 2b 2dd
2IV	D:maj	68.223	.	guitar	2D 2f# 2a
=51	=51	=51	=51	=51	=51
1I	A:maj	68.924	.	guitar	1A 1cc# 1ee
=52	=52	=52	=52	=52	=52
2-VII	G:maj	70.327	.	guitar	2G 2b 2dd
2IV	D:maj	71.028	.	guitar	2D 2f# 2a
=53	=53	=53	=53	=53	=53
*>C_verse	*>C_verse	*>C_verse	*>C_verse	*>C_verse	*>C_verse
1I	A:maj	71.73	newline	voice	1A 1cc# 1ee
=54	=54	=54	=54	=54	=54
2-VII	G:maj	73.096	.	voice	2G 2b 2dd
2IV	D:maj	73.78	.	voice	2D 2f# 2a
=55	=55	=55	=55	=55	=55
1I	A:maj	74.463	.	voice	1A 1cc# 1ee
=56	=56	=56	=56	=56	=56
2-VII	G:maj	75.83	.	voice	2G 2b 2dd
2IV	D:maj	76.513	.	voice	2D 2f# 2a
=57	=57	=57	=57	=57	=57
1I	A:maj	77.196	newline	voice	1A 1cc# 1ee
=58	=58	=58	=58	=58	=58
2-VII	G:maj	78.563	.	voice	2G 2b 2dd
2IV	D:maj	79.247	.	voice	2D 2f# 2a
=59	=59	=59	=59	=59	=59
1I	A:maj	79.93	.	voice	1A 1cc# 1ee
=60	=60	=60	=60	=60	=60
1I	A:maj	81.297	.	voice	1A 1cc# 1ee
=61	=61	=61	=61	=61	=61
1IV	D:maj	82.665	newline	voice	1D 1f# 1a
=62	=62	=62	=62	=62	=62
1IV	D:maj	84.024	.	voice	1D 1f# 1a
=63	=63	=63	=63	=63	=63
1-III	C:maj	85.383	.	voice	1C 1e 1g
=64	=64	=64	=64	=64	=64
1-III	C:maj	86.743	.	voice	1C 1e 1g
=65	=65	=65	=65	=65	=65
1IV	D:maj	88.102	newline	voice	1D 1f# 1a
=66	=66	=66	=66	=66	=66
1IV	D:maj	89.448	.	voice	1D 1f# 1a
=67	=67	=67	=67	=67	=67
1-III	C:maj	90.794	.	voice	1C 1e 1g
=68	=68	=68	=68	=68	=68
1-III	C:maj	92.14	.	voice	1C 1e 1g
=69	=69	=69	=69	=69	=69
1V	E:maj	93.486	newline	voice	1E 1g# 1b
=70	=70	=70	=70	=70	=70
1V	E:maj	94.836	.	voice	1E 1g# 1b
=71	=71	=71	=71	=71	=71
1V	E:maj	96.186	.	voice	1E 1g# 1b
=72	=72	=72	=72	=72	=72
1V	E:maj	97.536	.	voice	1E 1g# 1b
=73	=73	=73	=73	=73	=73
*>D_chorus	*>D_chorus	*>D_chorus	*>D_chorus	*>D_chorus	*>D_chorus
1I	A:maj	98.886	newline	voice	1A 1cc# 1ee
=74	=74	=74	=74	=74	=74
1I	A:maj	100.237	.	voice	1A 1cc# 1ee
=75	=75	=75	=75	=75	=75
1-VII	G:maj	101.589	.	voice	1G 1b 1dd
=76	=76	=76	=76	=76	=76
1IV	D:maj	102.94	.	voice	1D 1f# 1a
=77	=77	=77	=77	=77	=77
1I	A:maj	104.291	newline	voice	1A 1cc# 1ee
=78	=78	=78	=78	=78	=78
1I	A:maj	105.633	.	voice	1A 1cc# 1ee
=79	=79	=79	=79	=79	=79
1-VII	G:maj	106.974	.	voice	1G 1b 1dd
=80	=80	=80	=80	=80	=80
1IV	D:maj	108.316	.	voice	1D 1f# 1a
=81	=81	=81	=81	=81	=81
1ii	B:min	109.657	newline	voice	1B 1dd 1ff#
=82	=82	=82	=82	=82	=82
1ii7	B:min7	110.994	.	voice	1B 1dd 1ff# 1aa
=83	=83	=83	=83	=83	=83
1V	E:maj	112.331	.	voice	1E 1g# 1b
=84	=84	=84	=84	=84	=84
1V	E:maj	113.668	.	voice	1E 1g# 1b
=85	=85	=85	=85	=85	=85
*>B_trans	*>B_trans	*>B_trans	*>B_trans	*>B_trans	*>B_trans
1I	A:maj	115.005	newline	guitar	1A 1cc# 1ee
=86	=86	=86	=86	=86	=86
2-VII	G:maj	116.381	.	guitar	2G 2b 2dd
2IV	D:maj	117.069	.	guitar	2D 2f# 2a
=87	=87	=87	=87	=87	=87
1I	A:maj	117.757	.	guitar	1A 1cc# 1ee
=88	=88	=88	=88	=88	=88
2-VII	G:maj	119.133	.	guitar	2G 2b 2dd
2IV	D:maj	119.821	.	guitar	2D 2f# 2a
=89	=89	=89	=89	=89	=89
*>C_solo	*>C_solo	*>C_solo	*>C_solo	*>C_solo	*>C_solo
1I	A:maj	120.509	newline	guitar	1A 1cc# 1ee
=90	=90	=90	=90	=90	=90
2-VII	G:maj	121.863	.	guitar	2G 2b 2dd
2IV	D:maj	122.541	.	guitar	2D 2f# 2a
=91	=91	=91	=91	=91	=91
1I	A:maj	123.218	.	guitar	1A 1cc# 1ee
=92	=92	=92	=92	=92	=92
2-VII	G:maj	124.573	.	guitar	2G 2b 2dd
2IV	D:maj	125.25	.	guitar	2D 2f# 2a
=93	=93	=93	=93	=93	=93
1I	A:maj	125.928	newline	guitar	1A 1cc# 1ee
=94	=94	=94	=94	=94	=94
2-VII	G:maj	127.249	.	guitar	2G 2b 2dd
2IV	D:maj	127.91	.	guitar	2D 2f# 2a
=95	=95	=95	=95	=95	=95
1I	A:maj	128.571	.	guitar	1A 1cc# 1ee
=96	=96	=96	=96	=96	=96
1I	A:maj	129.893	.	guitar	1A 1cc# 1ee
=97	=97	=97	=97	=97	=97
1IV	D:maj	131.215	newline	guitar	1D 1f# 1a
=98	=98	=98	=98	=98	=98
1IV	D:maj	132.545	.	guitar	1D 1f# 1a
=99	=99	=99	=99	=99	=99
1-III	C:maj	133.875	.	guitar	1C 1e 1g
=100	=100	=100	=100	=100	=100
1-III	C:maj	135.206	.	guitar	1C 1e 1g
=101	=101	=101	=101	=101	=101
1IV	D:maj	136.536	newline	guitar	1D 1f# 1a
=102	=102	=102	=102	=102	=102
1IV	D:maj	137.851	.	guitar	1D 1f# 1a
=103	=103	=103	=103	=103	=103
1-III	C:maj	139.166	.	guitar	1C 1e 1g
=104	=104	=104	=104	=104	=104
1-III	C:maj	140.481	.	guitar	1C 1e 1g
=105	=105	=105	=105	=105	=105
1V	E:maj	141.796	newline	guitar	1E 1g# 1b
=106	=106	=106	=106	=106	=106
1V	E:maj	143.105	.	guitar	1E 1g# 1b
=107	=107	=107	=107	=107	=107
1V	E:maj	144.414	.	guitar	1E 1g# 1b
=108	=108	=108	=108	=108	=108
1V	E:maj	145.723	.	guitar	1E 1g# 1b
=109	=109	=109	=109	=109	=109
*>D_chorus	*>D_chorus	*>D_chorus	*>D_chorus	*>D_chorus	*>D_chorus
1I	A:maj	147.031	newline	voice	1A 1cc# 1ee
=110	=110	=110	=110	=110	=110
1I	A:maj	148.375	.	voice	1A 1cc# 1ee
=111	=111	=111	=111	=111	=111
1-VII	G:maj	149.718	.	voice	1G 1b 1dd
=112	=112	=112	=112	=112	=112
1IV	D:maj	151.061	.	voice	1D 1f# 1a
=113	=113	=113	=113	=113	=113
1I	A:maj	152.405	newline	voice	1A 1cc# 1ee
=114	=114	=114	=114	=114	=114
1I	A:maj	153.732	.	voice	1A 1cc# 1ee
=115	=115	=115	=115	=115	=115
1-VII	G:maj	155.058	.	voice	1G 1b 1dd
=116	=116	=116	=116	=116	=116
1IV	D:maj	156.385	.	voice	1D 1f# 1a
=117	=117	=117	=117	=117	=117
1ii	B:min	157.712	newline	voice	1B 1dd 1ff#
=118	=118	=118	=118	=118	=118
1ii7	B:min7	159.048	.	voice	1B 1dd 1ff# 1aa
=119	=119	=119	=119	=119	=119
1V	E:maj	160.385	.	voice	1E 1g# 1b
=120	=120	=120	=120	=120	=120
1V	E:maj	161.722	.	voice	1E 1g# 1b
=121	=121	=121	=121	=121	=121
*>B2_trans	*>B2_trans	*>B2_trans	*>B2_trans	*>B2_trans	*>B2_trans
1I	A:maj	163.059	newline	guitar	1A 1cc# 1ee
=122	=122	=122	=122	=122	=122
2-VII	G:maj	164.435	.	guitar	2G 2b 2dd
2IV	D:maj	165.123	.	guitar	2D 2f# 2a
=123	=123	=123	=123	=123	=123
*>C_verse	*>C_verse	*>C_verse	*>C_verse	*>C_verse	*>C_verse
1I	A:maj	165.812	newline	voice	1A 1cc# 1ee
=124	=124	=124	=124	=124	=124
2-VII	G:maj	167.152	.	voice	2G 2b 2dd
2IV	D:maj	167.823	.	voice	2D 2f# 2a
=125	=125	=125	=125	=125	=125
1I	A:maj	168.493	.	voice	1A 1cc# 1ee
=126	=126	=126	=126	=126	=126
2-VII	G:maj	169.834	.	voice	2G 2b 2dd
2IV	D:maj	170.504	.	voice	2D 2f# 2a
=127	=127	=127	=127	=127	=127
1I	A:maj	171.174	newline	voice	1A 1cc# 1ee
=128	=128	=128	=128	=128	=128
2-VII	G:maj	172.515	.	voice	2G 2b 2dd
2IV	D:maj	173.185	.	voice	2D 2f# 2a
=129	=129	=129	=129	=129	=129
1I	A:maj	173.856	.	voice	1A 1cc# 1ee
=130	=130	=130	=130	=130	=130
1I	A:maj	175.197	.	voice	1A 1cc# 1ee
=131	=131	=131	=131	=131	=131
1IV	D:maj	176.537	newline	voice	1D 1f# 1a
=132	=132	=132	=132	=132	=132
1IV	D:maj	177.89	.	voice	1D 1f# 1a
=133	=133	=133	=133	=133	=133
1-III	C:maj	179.242	.	voice	1C 1e 1g
=134	=134	=134	=134	=134	=134
1-III	C:maj	180.595	.	voice	1C 1e 1g
=135	=135	=135	=135	=135	=135
1IV	D:maj	181.947	newline	voice	1D 1f# 1a
=136	=136	=136	=136	=136	=136
1IV	D:maj	183.275	.	voice	1D 1f# 1a
=137	=137	=137	=137	=137	=137
1-III	C:maj	184.603	.	voice	1C 1e 1g
=138	=138	=138	=138	=138	=138
1-III	C:maj	185.932	.	voice	1C 1e 1g
=139	=139	=139	=139	=139	=139
1V	E:maj	187.26	newline	voice	1E 1g# 1b
=140	=140	=140	=140	=140	=140
1V	E:maj	188.596	.	voice	1E 1g# 1b
=141	=141	=141	=141	=141	=141
1V	E:maj	189.933	.	voice	1E 1g# 1b
=142	=142	=142	=142	=142	=142
1V	E:maj	191.27	.	voice	1E 1g# 1b
=143	=143	=143	=143	=143	=143
*>D_chorus	*>D_chorus	*>D_chorus	*>D_chorus	*>D_chorus	*>D_chorus
1I	A:maj	192.607	newline	voice	1A 1cc# 1ee
=144	=144	=144	=144	=144	=144
1I	A:maj	193.94	.	voice	1A 1cc# 1ee
=145	=145	=145	=145	=145	=145
1-VII	G:maj	195.273	.	voice	1G 1b 1dd
=146	=146	=146	=146	=146	=146
1IV	D:maj	196.606	.	voice	1D 1f# 1a
=147	=147	=147	=147	=147	=147
1I	A:maj	197.939	newline	voice	1A 1cc# 1ee
=148	=148	=148	=148	=148	=148
1I	A:maj	199.267	.	voice	1A 1cc# 1ee
=149	=149	=149	=149	=149	=149
1-VII	G:maj	200.595	.	voice	1G 1b 1dd
=150	=150	=150	=150	=150	=150
1IV	D:maj	201.923	.	voice	1D 1f# 1a
=151	=151	=151	=151	=151	=151
1ii	B:min	203.251	newline	voice	1B 1dd 1ff#
=152	=152	=152	=152	=152	=152
1ii7	B:min7	204.597	.	voice	1B 1dd 1ff# 1aa
=153	=153	=153	=153	=153	=153
1V	E:maj	205.943	.	voice	1E 1g# 1b
=154	=154	=154	=154	=154	=154
1V	E:maj	207.29	.	voice	1E 1g# 1b
=155	=155	=155	=155	=155	=155
*>D_chorus	*>D_chorus	*>D_chorus	*>D_chorus	*>D_chorus	*>D_chorus
1I	A:maj	208.636	newline	voice	1A 1cc# 1ee
=156	=156	=156	=156	=156	=156
1I	A:maj	209.956	.	voice	1A 1cc# 1ee
=157	=157	=157	=157	=157	=157
1-VII	G:maj	211.276	.	voice	1G 1b 1dd
=158	=158	=158	=158	=158	=158
1IV	D:maj	212.596	.	voice	1D 1f# 1a
=159	=159	=159	=159	=159	=159
1I	A:maj	213.916	newline	voice	1A 1cc# 1ee
=160	=160	=160	=160	=160	=160
1I	A:maj	215.247	.	voice	1A 1cc# 1ee
=161	=161	=161	=161	=161	=161
1-VII	G:maj	216.579	.	voice	1G 1b 1dd
=162	=162	=162	=162	=162	=162
1IV	D:maj	217.91	.	voice	1D 1f# 1a
=163	=163	=163	=163	=163	=163
1ii	B:min	219.242	newline	voice	1B 1dd 1ff#
=164	=164	=164	=164	=164	=164
1ii7	B:min7	220.554	.	voice	1B 1dd 1ff# 1aa
=165	=165	=165	=165	=165	=165
1V	E:maj	221.867	.	voice	1E 1g# 1b
=166	=166	=166	=166	=166	=166
1V	E:maj	223.179	.	voice	1E 1g# 1b
=167	=167	=167	=167	=167	=167
*>E_outro	*>E_outro	*>E_outro	*>E_outro	*>E_outro	*>E_outro
1I	A:maj	224.491	newline	voice	1A 1cc# 1ee
=168	=168	=168	=168	=168	=168
1I	A:maj	225.882	.	voice	1A 1cc# 1ee
=169	=169	=169	=169	=169	=169
1I	A:sus2(b7)	227.272	.	voice	1A 1cc# 1ee
=170	=170	=170	=170	=170	=170
1IVc	D:maj/5	228.663	.	voice	1d 1f# 1A
=171	=171	=171	=171	=171	=171
1I	A:maj	230.053	newline	voice	1A 1cc# 1ee
=172	=172	=172	=172	=172	=172
1I	A:maj	231.4	.	voice	1A 1cc# 1ee
=173	=173	=173	=173	=173	=173
1I	A:sus2(b7)	232.748	.	voice	1A 1cc# 1ee
=174	=174	=174	=174	=174	=174
1IVc	D:maj/5	234.095	.	voice	1d 1f# 1A
=175	=175	=175	=175	=175	=175
1I	A:maj	235.443	newline	voice	1A 1cc# 1ee
=176	=176	=176	=176	=176	=176
1I	A:maj	236.802	.	voice	1A 1cc# 1ee
=177	=177	=177	=177	=177	=177
1I	A:sus2(b7)	238.16	.	voice	1A 1cc# 1ee
=178	=178	=178	=178	=178	=178
1IVc	D:maj/5	239.519	.	voice	1d 1f# 1A
=179	=179	=179	=179	=179	=179
1I	A:maj	240.878	newline	voice	1A 1cc# 1ee
=180	=180	=180	=180	=180	=180
1I	A:maj	242.241	.	voice	1A 1cc# 1ee
=181	=181	=181	=181	=181	=181
1IVc	D:maj/5	243.603	.	voice	1d 1f# 1A
=182	=182	=182	=182	=182	=182
1IVc	D:maj/5	244.966	.	voice	1d 1f# 1A
=183	=183	=183	=183	=183	=183
1-VI7b	F:maj7/3	246.329	newline	voice	1f 1A 1cc 1ee
=184	=184	=184	=184	=184	=184
1-VI7b	F:maj7/3	247.745	.	voice	1f 1A 1cc 1ee
=185	=185	=185	=185	=185	=185
1V7f	E:7(b9)/4	249.161	.	voice	1E 1g# 1b 1dd
=186	=186	=186	=186	=186	=186
1V7f	E:7(b9)/4	250.576	.	voice	1E 1g# 1b 1dd
=187	=187	=187	=187	=187	=187
1I	A:maj(9)	251.992	newline	guitar	1A 1cc# 1ee
1r;	N	258.276	.	r	1r;
1r;	N	260.598	.	r	1r;
*-	*-	*-	*-	*-	*-
!!!OTL: Amie
!!!COC: Pure Prairie League
!!!BillboardChartDate: 1975/03/08
!!!BillboardPeak: 27
!!!BillboardWeeksOnChart: 13
!!!SampleTargetRank: 88
!!!SampleActualRank: 88
!!!SampleID#: 0406
!!!RDF**harmony: **recip + pitch class of root + harmonic quality
!!!RDF**harte: Chris Harte's syntax, used by MIREX
!!!RDF**phrase: newline = linebreak in original McGill transcription
!!!RDF**timestamp: McGill audio timestamp in seconds
!!!RDF**leadinstrument: original McGill primary instrumentation annotation
!!!RDT: 2017/01/12/
!!!ENC: Nathaniel Condit-Schultz
!!!EST: Awating manual error checking and editing.
